X:238
T:score40
L:1/8
Q:1/4=96
M:3/4
I:linebreak $
K:Bb
 (3d'd'd' .d' z (c'>b) | (!>!b>a a4) | (3e'e'e' .e' z (d'>c' | b4) z2 |$ (3ddd .d z (c>B) | %5
 (!>!B>A A4) | (3eee .e z (d>c | B4) z2 |] %8
